X:858
T:Speed the Plough
R:Reel
B:The Athole Collection
M:C|
L:1/8
K:A
E|A2(Ac efec|eaec efec|dfdB cecA|FBBA GABc|ABcd efec|eaga ecAc|
decd BcAB|FAGB A2A||g|a2 (ag aece|aAgA fAec|dfdB cecA|FBBA GABd|
cAce aece|fgaf ecAc|decd BcAB|FAGB A2A||

